X:9161
T:Lady Mary Ramsay
M:4/4
L:1/8
N:Original difficult to decipher with missing dots. An independant check
N:is a very good idea
K:D
D2sDs>B As<FsF>B|A<FB<G A<FA<d|D2sDs>B A>FF>A|(3Bcd) (3AGF) E2sEs<e|D2sD
>B A<FF<B|A<FB<G A<FA<d|D2sDs>B A>FF>A|(3Bcd) (3AGF) E2 E<g|!
f<dd>f e<cc>e|d<BB>d A<FF>g|f<dd>f e<cc>A|(3Bcd) (3AGF) E2sEsg|f<dd>f e<
cc>e|d<BB>d A<FF>A|(3def) (3edc) (3Bcd) (3AGF)|(3GAB) (3AGF) E2 Ee||
% Output from ABC2Win  Version 2.1 f on 03/09/98


